X:14275
T:RIDEE 6 TEMPS N 5
Z: Yves BELOTTEAU
M:4/4
L:1/4
Q:1/4=120
K:C
|c/2cd/2cB/2A3/2Gc/2cd/2|cB/2A3/2G3/2G3/2c/2cd/2|c B<AG c/2cd/2cB/2|A3/2
G3/2G3/2c/2cd/2e3/2|
fe/2de/2d c/2Bc/2d/2B/2A/2|G3/2G3/2c/2c d<efe/2|de/2dc/2B c/2d/2e/2B/2c3
/2|c3/2c/2c d<efe/2de/2|
dc/2Bc/2d/2B/2 A/2G3/2G3/2c/2|c d<ef e/2de/2dc/2B|c/2d/2e/2 B<cc3/2|
